src/topics/icons/nginx.svg

<svg height="108" preserveAspectRatio="xMidYMid" viewBox="0 0 512 108" width="512" xmlns="http://www.w3.org/2000/svg"><g fill="#090"><path d="m96.1743134 107.150604c-2.8895944 0-5.7347334-1.124719-7.8596966-3.254128l-65.7716132-65.7760582v57.916362c0 6.1392762-4.9745478 11.1138242-11.1138244 11.1138242-6.13483108 0-11.11382443-4.974548-11.11382443-11.1138242v-84.7495797c0-4.49887612 2.71177317-8.54875376 6.86389797-10.26917378 4.14767926-1.72486555 8.93106936-.77352218 12.10962316 2.40947714l65.7716131 65.77605854v-57.9163619c0-6.13927662 4.9745478-11.11382444 11.1138244-11.11382444s11.1138246 4.97454782 11.1138246 11.11382444v84.7495797c0 4.4944302-2.711773 8.5487542-6.863898 10.2691742-1.3736688.569027-2.8140204.84465-4.2499266.84465"/><path d="m147.640212.28006838-3.054079 5.69916918-23.6191 42.92603544-3.054079 5.4191008 3.054079 5.4146554 23.6191 41.5390298 3.19189 5.694724h61.823983l3.054078-6.250415 17.644308-35.564238 7.917488-16.1150454h-17.91993l-45.1488.1378114c-5.872545-.0800196-11.273864 5.2412796-11.273864 11.1138244s5.401319 11.1982896 11.273864 11.1138244l27.22887-.1378114-6.668295 13.4744008h-35.008547l-17.368685-30.5630172 17.506497-31.6743998h37.240203l8.682119 17.8176834h22.369906l-14.10122-33.79047182-3.058524-6.2548604z"/><path d="m260.232144.14225695c-5.823644.07112848-11.051586 5.43243739-10.976012 11.25163585v28.9626266h22.227648v-28.9626266c.071128-5.91255458-5.343526-11.32720985-11.251636-11.25163585"/><path d="m295.85862 107.36399c-1.43146 0-2.876258-.275623-4.249926-.844651-4.152126-1.72042-6.859452-5.774743-6.859452-10.2691738v-84.7495797c0-6.13927658 4.974546-11.11382441 11.113824-11.11382441 6.139276 0 11.113824 4.97454783 11.113824 11.11382441v57.9163619l65.771614-65.77605852c3.169662-3.17410825 7.94416-4.13434269 12.109622-2.40947713 4.152124 1.72042003 6.859452 5.77474319 6.859452 10.26917375v84.7495797c0 6.1392768-4.974548 11.1138248-11.113824 11.1138248s-11.113824-4.974548-11.113824-11.1138248v-57.916362l-65.771614 65.7760588c-2.120518 2.124963-4.965656 3.254128-7.859696 3.254128"/><path d="m474.044344 53.7909104 34.572886-34.4484103c4.347728-4.329946 4.361064-11.36721968.026672-15.71939334-4.329946-4.34772811-11.362774-4.35661917-15.714946-.02667316l-34.626232 34.5062022-34.626232-34.5062022c-4.352174-4.33439154-11.385002-4.32105495-15.714948.02667316-4.334392 4.35217366-4.321054 11.38944734.022228 15.71939334l34.572886 34.4484103-34.470638 34.3506086c-4.352174 4.3343914-4.361066 11.3672196-.026674 15.714948 2.169418 2.182755 5.019004 3.27191 7.873034 3.27191 2.836248 0 5.672496-1.080264 7.841914-3.245237l34.52843-34.403955 34.523984 34.403955c2.173864 2.164973 5.005666 3.245237 7.84636 3.245237 2.85403 0 5.69917-1.089155 7.873034-3.27191 4.329946-4.3477284 4.321054-11.3805566-.026674-15.714948z"/><path d="m260.232144 107.048357c-5.823644-.071128-11.051586-5.432437-10.976012-11.2516358v-46.5224692h22.227648v46.5224692c.071128 5.9081088-5.343526 11.3227648-11.251636 11.2516358"/></g></svg>

<?xml version="1.0" encoding="UTF-8" standalone="no"?>
<svg width="512px" height="108px" viewBox="0 0 512 108" version="1.1" xmlns="http://www.w3.org/2000/svg" xmlns:xlink="http://www.w3.org/1999/xlink" preserveAspectRatio="xMidYMid">
	<g fill="#009900">
		<path d="M96.1743134,107.150604 C93.284719,107.150604 90.43958,106.025885 88.3146168,103.896476 L22.5430036,38.1204178 L22.5430036,96.0367798 C22.5430036,102.176056 17.5684558,107.150604 11.4291792,107.150604 C5.29434812,107.150604 0.315354768,102.176056 0.315354768,96.0367798 L0.315354768,11.2872001 C0.315354768,6.78832398 3.02712794,2.73844634 7.17925274,1.01802632 C11.326932,-0.706839234 16.1103221,0.244504138 19.2888759,3.42750346 L85.060489,69.203562 L85.060489,11.2872001 C85.060489,5.14792348 90.0350368,0.173375661 96.1743134,0.173375661 C102.31359,0.173375661 107.288138,5.14792348 107.288138,11.2872001 L107.288138,96.0367798 C107.288138,100.53121 104.576365,104.585534 100.42424,106.305954 C99.0505712,106.874981 97.6102196,107.150604 96.1743134,107.150604"></path>
		<path d="M147.640212,0.280068376 L144.586133,5.97923756 L120.967033,48.905273 L117.912954,54.3243738 L120.967033,59.7390292 L144.586133,101.278059 L147.778023,106.972783 L209.602006,106.972783 L212.656084,100.722368 L230.300392,65.15813 L238.21788,49.0430846 L220.29795,49.0430846 L175.14915,49.180896 C169.276605,49.1008764 163.875286,54.4221756 163.875286,60.2947204 C163.875286,66.1672652 169.276605,71.49301 175.14915,71.4085448 L202.37802,71.2707334 L195.709725,84.7451342 L160.701178,84.7451342 L143.332493,54.182117 L160.83899,22.5077172 L198.079193,22.5077172 L206.761312,40.3254006 L229.131218,40.3254006 L215.029998,6.53492878 L211.971474,0.280068376 L147.640212,0.280068376"></path>
		<path d="M260.232144,0.142256953 C254.4085,0.21338543 249.180558,5.57469434 249.256132,11.3938928 L249.256132,40.3565194 L271.48378,40.3565194 L271.48378,11.3938928 C271.554908,5.48133822 266.140254,0.0666829466 260.232144,0.142256953"></path>
		<path d="M295.85862,107.36399 C294.42716,107.36399 292.982362,107.088367 291.608694,106.519339 C287.456568,104.798919 284.749242,100.744596 284.749242,96.2501652 L284.749242,11.5005855 C284.749242,5.36130892 289.723788,0.38676109 295.863066,0.38676109 C302.002342,0.38676109 306.97689,5.36130892 306.97689,11.5005855 L306.97689,69.4169474 L372.748504,3.64088888 C375.918166,0.466780626 380.692664,-0.493453806 384.858126,1.23141175 C389.01025,2.95183178 391.717578,7.00615494 391.717578,11.5005855 L391.717578,96.2501652 C391.717578,102.389442 386.74303,107.36399 380.603754,107.36399 C374.464478,107.36399 369.48993,102.389442 369.48993,96.2501652 L369.48993,38.3338032 L303.718316,104.109862 C301.597798,106.234825 298.75266,107.36399 295.85862,107.36399"></path>
		<path d="M474.044344,53.7909104 L508.61723,19.3425001 C512.964958,15.0125541 512.978294,7.97528042 508.643902,3.62310676 C504.313956,-0.724621354 497.281128,-0.733512414 492.928956,3.5964336 L458.302724,38.1026358 L423.676492,3.5964336 C419.324318,-0.737957944 412.29149,-0.724621354 407.961544,3.62310676 C403.627152,7.97528042 403.64049,15.0125541 407.983772,19.3425001 L442.556658,53.7909104 L408.08602,88.141519 C403.733846,92.4759104 403.724954,99.5087386 408.059346,103.856467 C410.228764,106.039222 413.07835,107.128377 415.93238,107.128377 C418.768628,107.128377 421.604876,106.048113 423.774294,103.88314 L458.302724,69.479185 L492.826708,103.88314 C495.000572,106.048113 497.832374,107.128377 500.673068,107.128377 C503.527098,107.128377 506.372238,106.039222 508.546102,103.856467 C512.876048,99.5087386 512.867156,92.4759104 508.519428,88.141519 L474.044344,53.7909104"></path>
		<path d="M260.232144,107.048357 C254.4085,106.977229 249.180558,101.61592 249.256132,95.7967212 L249.256132,49.274252 L271.48378,49.274252 L271.48378,95.7967212 C271.554908,101.70483 266.140254,107.119486 260.232144,107.048357"></path>
	</g>
</svg>
